public/assets/icons/wallpaper.svg

<svg width="24" height="24" viewBox="0 0 24 24" fill="none" xmlns="http://www.w3.org/2000/svg">
<path fill-rule="evenodd" clip-rule="evenodd" d="M10.9451 1.25H13.0549C14.4225 1.24998 15.5248 1.24996 16.3918 1.36652C17.2919 1.48754 18.0497 1.74643 18.6517 2.34835C19.0519 2.74855 19.3004 3.2177 19.4576 3.75175C19.6692 3.75503 19.8458 3.76426 20.0084 3.79001C21.3991 4.01027 22.4897 5.10094 22.71 6.49159C22.7502 6.74548 22.7501 7.03358 22.75 7.43528C22.75 7.45653 22.75 7.4781 22.75 7.5V16.5C22.75 16.5219 22.75 16.5435 22.75 16.5647C22.7501 16.9664 22.7502 17.2545 22.71 17.5084C22.4897 18.8991 21.3991 19.9897 20.0084 20.21C19.8458 20.2357 19.6692 20.245 19.4576 20.2482C19.3004 20.7823 19.0519 21.2514 18.6517 21.6517C18.0497 22.2536 17.2919 22.5125 16.3918 22.6335C15.5248 22.75 14.4225 22.75 13.0549 22.75H10.9451C9.57754 22.75 8.47522 22.75 7.60825 22.6335C6.70814 22.5125 5.95027 22.2536 5.34835 21.6517C4.94815 21.2514 4.69958 20.7823 4.54236 20.2482C4.33083 20.245 4.1542 20.2357 3.99159 20.21C2.60094 19.9897 1.51027 18.8991 1.29001 17.5084C1.2498 17.2545 1.24988 16.9664 1.24999 16.5647C1.24999 16.5435 1.25 16.5219 1.25 16.5V7.5C1.25 7.4781 1.24999 7.45652 1.24999 7.43527C1.24988 7.03357 1.2498 6.74548 1.29001 6.49159C1.51027 5.10094 2.60094 4.01027 3.99159 3.79001C4.1542 3.76426 4.33084 3.75503 4.54236 3.75175C4.69958 3.2177 4.94815 2.74855 5.34835 2.34835C5.95027 1.74643 6.70814 1.48754 7.60825 1.36652C8.47522 1.24996 9.57754 1.24998 10.9451 1.25ZM4.30191 5.26229C4.27393 5.26483 4.2494 5.26788 4.22624 5.27155C3.47743 5.39015 2.89015 5.97743 2.77155 6.72624C2.75233 6.84758 2.75 7.00684 2.75 7.5V16.5C2.75 16.9932 2.75233 17.1524 2.77155 17.2738C2.89015 18.0226 3.47743 18.6099 4.22624 18.7285C4.2494 18.7321 4.27393 18.7352 4.30191 18.7377C4.24997 17.9893 4.24998 17.0995 4.25 16.0549L4.25 14.8166C4.25 14.8161 4.25 14.8156 4.25 14.8151L4.25 7.94512C4.24998 6.90052 4.24997 6.01069 4.30191 5.26229ZM5.75 15.1209V16C5.75 17.4354 5.75159 18.4365 5.85315 19.1919C5.9518 19.9257 6.13225 20.3142 6.40901 20.591C6.68577 20.8678 7.07434 21.0482 7.80812 21.1469C8.56347 21.2484 9.56458 21.25 11 21.25H13C14.4354 21.25 15.4365 21.2484 16.1919 21.1469C16.9257 21.0482 17.3142 20.8678 17.591 20.591C17.743 20.439 17.8659 20.2533 17.9622 19.9952L16.0804 18.0092C15.577 17.478 14.8816 17.4416 14.3519 17.8781L14.1322 18.0591C13.2159 18.8142 11.9548 18.6658 11.1952 17.7751L8.03433 14.0687C7.68429 13.6583 7.18508 13.6485 6.82774 14.0152L5.75 15.1209ZM18.2292 18.0961L17.1692 16.9775C16.1406 15.892 14.5546 15.7673 13.398 16.7205L13.1783 16.9016C12.9227 17.1121 12.5897 17.0987 12.3365 16.8018L9.17565 13.0954C8.26391 12.0263 6.73913 11.957 5.75355 12.9682L5.75 12.9719V8C5.75 6.56458 5.75159 5.56347 5.85315 4.80812C5.9518 4.07435 6.13225 3.68577 6.40901 3.40901C6.68577 3.13225 7.07435 2.9518 7.80812 2.85315C8.56347 2.75159 9.56458 2.75 11 2.75H13C14.4354 2.75 15.4365 2.75159 16.1919 2.85315C16.9257 2.9518 17.3142 3.13225 17.591 3.40901C17.8678 3.68577 18.0482 4.07435 18.1469 4.80812C18.2484 5.56347 18.25 6.56458 18.25 8V16C18.25 16.8326 18.2495 17.519 18.2292 18.0961ZM19.6981 18.7377C19.7261 18.7352 19.7506 18.7321 19.7738 18.7285C20.5226 18.6099 21.1099 18.0226 21.2285 17.2738C21.2477 17.1524 21.25 16.9932 21.25 16.5V7.5C21.25 7.00684 21.2477 6.84758 21.2285 6.72624C21.1099 5.97743 20.5226 5.39015 19.7738 5.27155C19.7506 5.26788 19.7261 5.26483 19.6981 5.26229C19.75 6.01069 19.75 6.90053 19.75 7.94513V16.0549C19.75 17.0995 19.75 17.9893 19.6981 18.7377ZM14.5 5.75C14.0858 5.75 13.75 6.08579 13.75 6.5C13.75 6.91421 14.0858 7.25 14.5 7.25C14.9142 7.25 15.25 6.91421 15.25 6.5C15.25 6.08579 14.9142 5.75 14.5 5.75ZM12.25 6.5C12.25 5.25736 13.2574 4.25 14.5 4.25C15.7426 4.25 16.75 5.25736 16.75 6.5C16.75 7.74264 15.7426 8.75 14.5 8.75C13.2574 8.75 12.25 7.74264 12.25 6.5Z" fill="#877EFF"/>
</svg>

<svg width="24" height="24" viewBox="0 0 24 24" fill="none" xmlns="http://www.w3.org/2000/svg"><path fill-rule="evenodd" clip-rule="evenodd" d="M10.945 1.25h2.11c1.367 0 2.47 0 3.337.117.9.12 1.658.38 2.26.981.4.4.648.87.806 1.404.211.003.388.012.55.038a3.25 3.25 0 0 1 2.702 2.702c.04.253.04.542.04.943v9.13c0 .401 0 .69-.04.943a3.25 3.25 0 0 1-2.702 2.702 4 4 0 0 1-.55.038c-.158.534-.406 1.003-.806 1.404-.602.602-1.36.86-2.26.982-.867.116-1.97.116-3.337.116h-2.11c-1.367 0-2.47 0-3.337-.116-.9-.122-1.658-.38-2.26-.982-.4-.4-.648-.87-.806-1.404a4 4 0 0 1-.55-.038 3.25 3.25 0 0 1-2.702-2.702c-.04-.253-.04-.542-.04-.943v-9.13c0-.401 0-.69.04-.943A3.25 3.25 0 0 1 3.992 3.79c.162-.026.339-.035.55-.038.158-.534.406-1.003.806-1.404.602-.602 1.36-.86 2.26-.981.867-.117 1.97-.117 3.337-.117M4.302 5.262l-.076.01a1.75 1.75 0 0 0-1.454 1.454c-.02.122-.022.28-.022.774v9c0 .493.002.652.022.774a1.75 1.75 0 0 0 1.53 1.464c-.052-.749-.052-1.639-.052-2.683v-8.11c0-1.044 0-1.934.052-2.683m1.448 9.859V16c0 1.435.002 2.436.103 3.192.099.734.28 1.122.556 1.399.277.277.665.457 1.4.556.754.101 1.756.103 3.191.103h2c1.435 0 2.437-.002 3.192-.103.734-.099 1.122-.28 1.399-.556a1.6 1.6 0 0 0 .371-.596L16.08 18.01c-.503-.531-1.198-.567-1.728-.13l-.22.18c-.916.755-2.177.607-2.937-.284l-3.16-3.706c-.35-.41-.85-.42-1.207-.054zm12.48 2.975-1.06-1.119c-1.03-1.085-2.615-1.21-3.772-.256l-.22.18c-.255.211-.588.198-.842-.1l-3.16-3.706c-.912-1.069-2.437-1.138-3.422-.127l-.004.004V8c0-1.435.002-2.437.103-3.192.099-.734.28-1.122.556-1.399.277-.277.665-.457 1.4-.556.754-.101 1.756-.103 3.191-.103h2c1.435 0 2.437.002 3.192.103.734.099 1.122.28 1.399.556.277.277.457.665.556 1.4.101.754.103 1.756.103 3.191v8c0 .833 0 1.519-.02 2.096m1.468.642.076-.01a1.75 1.75 0 0 0 1.454-1.454c.02-.122.022-.28.022-.774v-9c0-.493-.002-.652-.021-.774a1.75 1.75 0 0 0-1.53-1.464c.051.749.051 1.639.051 2.683v8.11c0 1.044 0 1.934-.052 2.683M14.5 5.75a.75.75 0 1 0 0 1.5.75.75 0 0 0 0-1.5m-2.25.75a2.25 2.25 0 1 1 4.5 0 2.25 2.25 0 0 1-4.5 0" fill="#877EFF"/></svg>
